X: 21093
T: Kaleb Watt Of The Broch
R: reel
M: 4/4
K: Eminor
|:DEED E2 DE|G2 BA GE D/E/G|DEED E2 DE|dBeB dBAG|
DEED E2 DE|G2 BA GE D/E/G|e2 eB d2 dB|cBAG E4:|
|:A2 AG BG A2-|AGBG AGEG|A2 AG BG A2-|Adde dBAG|
A2 AG BG A2-|AGBG AGEG|e2 eB d2 dB|cBAG E4:|

